X:40
T:Rakes of Kildare, The
R:Jig
M:6/8
L:1/8
K:ADor
A/2G/2|"Am"EAA AGA|Bcd e2f|"G"gfg ege|dBG G2A|
"Am"EAA AGA|Bcd e2f|"G"gfe "Em"dBG|"Am"A3-A2:|
a|"Am"aea aea|aea b2a|"G"gfg ege|dBG G2a|
"Am"aea aea|aea b2a|"G"gfe "Em"dBG|"Am"A3-A2a|
aea aea|aea b2a|"G"gfg ege|dBG G2A|
"Am"EAA AGA|Bcd e2f|"G"gfe "Em"dBG|"Am"A3-A2
